!!!COA: des Prez, Josquin
!!!CDT: ~1450-1521/08/27
!!!OTL: O bone et dulcis domine / Pater noster / Ave Maria...benedicta tu
!!!AGN: Motet
!!!SCT: NJE 21.8
!!!SCA: New Josquin Edition 21.8
!!!voices: 4
**kern	**kern	**kern	**kern
*part4	*part3	*part2	*part1
*staff4	*staff3	*staff2	*staff1
*Ivox	*Ivox	*Ivox	*Ivox
*I"Bassus	*I"Tenor	*I"Altus	*I"Superius
*I'B	*I'T	*I'A	*I'S
*clefF4	*clefGv2	*clefGv2	*clefG2
*k[]	*k[]	*k[]	*k[]
*a:	*a:	*a:	*a:
*M2/1	*M2/1	*M2/1	*M2/1
*met(C)	*met(C)	*met(C)	*met(C)
=1	=1	=1	=1
!LO:TX:Z=8:t=C.f.&colon; Ave Maria	!LO:TX:Z=8:t=C.f.&colon; Pater noster	!	!
0r	0r	0d	0d
=2	=2	=2	=2
0r	0r	1d	1f
.	.	1d	1f
=3	=3	=3	=3
0r	0r	1.c	1.e
.	.	4B	4d
.	.	4A	4c
=4	=4	=4	=4
0r	0r	2A	1.c
.	.	4G	.
.	.	4F	.
.	.	1F	.
.	.	.	2d
=5	=5	=5	=5
0r	0r	2G	1e
.	.	1A	.
.	.	.	2f
.	.	2B	[2g
=6	=6	=6	=6
0r	0r	1c	2g]
.	.	.	2a
.	.	2d	2f
.	.	[2e	[2g
=7	=7	=7	=7
0r	0r	4e]	4g]
.	.	4d	4f
.	.	1d	4e
.	.	.	4d
.	.	.	1e
.	.	2c#Xi	.
=8	=8	=8	=8
0r	0r	1d	0d
.	.	2r	.
.	.	2G	.
=9	=9	=9	=9
0r	0r	2A	2r
.	.	2B	2d
.	.	2c	2e
.	.	2A	2f
=10	=10	=10	=10
0r	0r	2B	2.g
.	.	2c	.
.	.	.	4a
.	.	2d	2b
.	.	2e	[2cc
=11	=11	=11	=11
0r	0r	1A	4cc]
.	.	.	4b
.	.	.	1a
.	.	1B	.
.	.	.	2g#Xi
=12	=12	=12	=12
0F	0r	2A	0a
.	.	1c	.
.	.	2d	.
=13	=13	=13	=13
1C	0r	1e	1r
1D	.	1f	1a
=14	=14	=14	=14
0D	0r	2d	1a
.	.	1f	.
.	.	.	1a
.	.	4e	.
.	.	4d	.
=15	=15	=15	=15
0A	0c	0e	2.cc
.	.	.	4b
.	.	.	2a
.	.	.	2g
=16	=16	=16	=16
0B-Xi	0d	1r	1f
.	.	1G	1g
=17	=17	=17	=17
0A	0e	1.c	1.a
.	.	4B	[2cc
.	.	4G	.
=18	=18	=18	=18
0r	1e	2A	2cc]
.	.	2G	2.b
.	1e	1c	.
.	.	.	4a
.	.	.	[2a
=19	=19	=19	=19
0r	1d	1B	2a]
.	.	.	2g#Xi
.	2e	2A	[1a
.	[2f	[2d	.
=20	=20	=20	=20
0r	2f]	2d]	0a_
.	2e	2c	.
.	1d	1f	.
=21	=21	=21	=21
0A	0c	1.e	1a]
.	.	.	1cc
.	.	4d	.
.	.	4c	.
=22	=22	=22	=22
1G	0r	2d	1b
.	.	2e	.
1F	.	1f	2a
.	.	.	[2cc
=23	=23	=23	=23
0G	0d	0r	2cc]
.	.	.	4b
.	.	.	4a
.	.	.	4b
.	.	.	4a
.	.	.	4g
.	.	.	4f
=24	=24	=24	=24
0A	0c	0r	1.e
.	.	.	[2f
=25	=25	=25	=25
0r	1d	1D	2f]
.	.	.	4e
.	.	.	4d
.	[1e	1A	1c
=26	=26	=26	=26
0r	1e]	2G	2r
.	.	2E	2g
.	1d	2F	2a
.	.	2G	2b
=27	=27	=27	=27
0A	1c	4A	1.cc
.	.	4B	.
.	.	4c	.
.	.	4d	.
.	1c	2e	.
.	.	2f	4b
.	.	.	4a
=28	=28	=28	=28
1G	1d	1g	1b
1F	1f	1c	1a
=29	=29	=29	=29
1G	2e	0r	0r
.	2.d	.	.
2F	.	.	.
.	4c	.	.
[2G	[2e	.	.
=30	=30	=30	=30
4G]	4e]	1r	0r
4F	4d	.	.
4E	1d	.	.
4D	.	.	.
1E	.	1g	.
.	2c#Xi	.	.
=31	=31	=31	=31
0D	1d	2f	1.a
.	.	1f	.
.	1r	.	.
.	.	4e	4g
.	.	4d	4f
=32	=32	=32	=32
0r	1e	1c	2g
.	.	.	1a
.	1f	1d	.
.	.	.	4g
.	.	.	4f
=33	=33	=33	=33
0r	1e	0c	2g
.	.	.	2a
.	1e	.	2g
.	.	.	2a
=34	=34	=34	=34
1G	2d	1r	4b
.	.	.	4g
.	2e	.	1cc
1G	1d	2r	.
.	.	2g	2b
=35	=35	=35	=35
0A	0c	2f	0cc
.	.	1e	.
.	.	4d	.
.	.	4c	.
=36	=36	=36	=36
0G	2r	1B	0r
.	2e	.	.
.	2d	2r	.
.	2e	2B	.
=37	=37	=37	=37
0F	0f	2c	0a
.	.	2d	.
.	.	2c	.
.	.	[2d	.
=38	=38	=38	=38
0r	1e	4d]	1a
.	.	4A	.
.	.	2c	.
.	1d	1B	1g
=39	=39	=39	=39
0r	1c	1A	2a
.	.	.	2cc
.	[1d	2G	2b
.	.	2F	[2a
=40	=40	=40	=40
0r	1d]	1D	2a]
.	.	.	4g
.	.	.	4f
.	1c	1A	2e
.	.	.	2f
=41	=41	=41	=41
0r	0d	2G	2g
.	.	1F	1a
.	.	4E	4g
.	.	4D	4f
=42	=42	=42	=42
0r	[0e	2C	2.g
.	.	2.c	.
.	.	.	4a
.	.	.	2g
.	.	4B	.
.	.	2A	[2cc
=43	=43	=43	=43
0E	0e]	2G	4cc]
.	.	.	4b
.	.	2c	1a
.	.	1B	.
.	.	.	2g#Xi
=44	=44	=44	=44
[0F	1d	0A	[0a
.	1c	.	.
=45	=45	=45	=45
0F]	1c	1r	0a]
.	1d	1A	.
=46	=46	=46	=46
0G	1e	1.B	0r
.	2d	.	.
.	[2e	4A	.
.	.	4G	.
=47	=47	=47	=47
1F	4e]	1A	1r
.	4d	.	.
.	1d	.	.
1E	.	2B	1g
.	2c#Xi	2G	.
=48	=48	=48	=48
1D	0d	2.A	2.f
.	.	4B	4g
1D	.	2A	2a
.	.	[2d	[2b-Xi
=49	=49	=49	=49
0D	0r	2d]	4b-]
.	.	.	4a
.	.	4c	1g
.	.	4B	.
.	.	1A	.
.	.	.	2f#Xi
=50	=50	=50	=50
0r	0c	1.e	0g
.	.	4d	.
.	.	4c	.
=51	=51	=51	=51
0r	1d	1B	2r
.	.	.	1g
.	1e	2c	.
.	.	[2c	2a
=52	=52	=52	=52
0r	1e	2c]	2g
.	.	4B	2a
.	.	4A	.
.	1e	2G	2b
.	.	2c	[2g
=53	=53	=53	=53
0r	2d	2B	2g]
.	2e	2c	1cc
.	1d	1G	.
.	.	.	2b
=54	=54	=54	=54
0r	1c	0r	2a
.	.	.	2g
.	1d	.	2.f
.	.	.	8eL
.	.	.	8dJ
=55	=55	=55	=55
0r	1c	1r	2e
.	.	.	1cc
.	1d	1G	.
.	.	.	2b
=56	=56	=56	=56
0C	0e	2G	0cc
.	.	2A	.
.	.	2G	.
.	.	[2A	.
=57	=57	=57	=57
1D	1d	4A]	1r
.	.	4G	.
.	.	4F	.
.	.	4E	.
1F	1d	1D	2r
.	.	.	[2a
=58	=58	=58	=58
1F	0r	2r	4a]
.	.	.	4g
.	.	2A	4f
.	.	.	4e
1G	.	2.B	2d
.	.	.	[2dd
.	.	4c	.
=59	=59	=59	=59
0G	0r	4d	4dd]
.	.	4B	4cc
.	.	1d	4b
.	.	.	4a
.	.	.	1b
.	.	4c	.
.	.	4B	.
=60	=60	=60	=60
0F	0r	2c	0a
.	.	2d	.
.	.	2c	.
.	.	[2d	.
=61	=61	=61	=61
0G	0r	4d]	2r
.	.	4c	.
.	.	4B	1dd
.	.	4A	.
.	.	1B	.
.	.	.	4cc
.	.	.	4b
=62	=62	=62	=62
0r	1r	2.A	2.cc
.	.	4G	4b
.	1c	2F	2a
.	.	2E	2g
=63	=63	=63	=63
0r	1d	1D	2f
.	.	.	2a
.	1e	2.c	2g
.	.	.	[2cc
.	.	4B	.
=64	=64	=64	=64
0r	1e	2A	2cc]
.	.	2G	2b
.	1f	2.F	2a
.	.	.	[2cc
.	.	4G	.
=65	=65	=65	=65
0r	1e	2.A	2cc]
.	.	.	4b
.	.	4B	4a
.	1e	1c	[1g
=66	=66	=66	=66
0r	1d	2B	0g_
.	.	2G	.
.	1e	1c	.
=67	=67	=67	=67
0r	0d	2B	1g]
.	.	2.G	.
.	.	.	2r
.	.	4F	.
.	.	2D	2f
=68	=68	=68	=68
0r	1c	2E	2g
.	.	1F	1a
.	1d	.	.
.	.	4E	4g
.	.	4D	4f
=69	=69	=69	=69
0r	1c	1A	2e
.	.	.	1f
.	1d	1B-Xi	.
.	.	.	4e
.	.	.	4d
=70	=70	=70	=70
1r	0e	1A	0c
1A	.	2r	.
.	.	2c	.
=71	=71	=71	=71
1G	0r	2d	1r
.	.	2B	.
1F	.	1A	1cc
=72	=72	=72	=72
1G	1d	2B	2b
.	.	2G	2.dd
1G	1e	[1g	.
.	.	.	4cc
.	.	.	4b
.	.	.	4a
=73	=73	=73	=73
0G	1d	1g]	4b
.	.	.	4g
.	.	.	1cc
.	1d	2g	.
.	.	2G	2b
=74	=74	=74	=74
0r	1c	1A	1cc
.	1d	2.B	1r
.	.	8A/L	.
.	.	8B/J	.
=75	=75	=75	=75
1E	1e	2c	0g
.	.	1B	.
1G	1d	.	.
.	.	4A	.
.	.	4G	.
=76	=76	=76	=76
1E	0c	2G	1g
.	.	2.c	.
1F	.	.	1a
.	.	4B	.
.	.	[2A	.
=77	=77	=77	=77
0D	1d	2A]	2f
.	.	4G	1a
.	.	4F	.
.	1d	2A	.
.	.	2B	4g
.	.	.	4f
=78	=78	=78	=78
0C	0r	2.c	2.e
.	.	4B	4d
.	.	2A	1e
.	.	2G	.
=79	=79	=79	=79
0D	1d	1F	2r
.	.	.	1a
.	1A	2r	.
.	.	2F	4g
.	.	.	4f
=80	=80	=80	=80
0C	0c	1G	2.e
.	.	.	4d
.	.	1A	1e
=81	=81	=81	=81
0BB-X	0d	1.B-X	1d
.	.	.	1dd
.	.	4A	.
.	.	4G	.
=82	=82	=82	=82
0C	0e	1G	2.cc
.	.	.	4b
.	.	2.c	2a
.	.	.	2g
.	.	4B-Xi	.
=83	=83	=83	=83
0D	1d	2A	[0f
.	.	2B-Xi	.
.	1d	2A	.
.	.	2F	.
=84	=84	=84	=84
0D	1d	2B-Xi	0f]
.	.	2.A	.
.	1d	.	.
.	.	4G	.
.	.	4F	.
.	.	4E	.
=85	=85	=85	=85
0F	1d	1D	0a
.	1c	2r	.
.	.	[2A	.
=86	=86	=86	=86
0D	1d	4A]	2r
.	.	4G	.
.	.	4F	2.a
.	.	4E	.
.	1d	2.F	.
.	.	.	4g
.	.	.	4f
.	.	4G	4e
=87	=87	=87	=87
0D	2r	2A	2f
.	2d	2B-Xi	1g
.	2d	1A	.
.	2d	.	2f#Xi
=88	=88	=88	=88
0r	1d	1G	2g
.	.	.	2d
.	1d	2r	1f
.	.	2D	.
=89	=89	=89	=89
1r	[0c	2E	2g
.	.	2F	1a
1AA	.	2E	.
.	.	[2A	4g
.	.	.	4f
=90	=90	=90	=90
0AA	0c]	2A]	1e
.	.	4G	.
.	.	4F	.
.	.	1E	1r
=91	=91	=91	=91
[0G	0d	2.B	2r
.	.	.	2.g
.	.	4c	.
.	.	4d	.
.	.	4G	4a
.	.	[2g	4b
.	.	.	4cc
=92	=92	=92	=92
0G]	0d	2g]	4dd
.	.	.	4g
.	.	4f	1cc
.	.	4e	.
.	.	2d	.
.	.	2g	2b
=93	=93	=93	=93
[0A	0r	2f	2.cc
.	.	2.e	.
.	.	.	4dd
.	.	.	4ee
.	.	4d	4ff
.	.	4c	[2ee
.	.	4B	.
=94	=94	=94	=94
0A]	0r	2c	4ee]
.	.	.	4dd
.	.	2d	1dd
.	.	1e	.
.	.	.	2cc#Xi
=95	=95	=95	=95
[0Dl	0d	1.f	[0ddl
.	.	2e	.
=96	=96	=96	=96
0D_	[0dl	2d	0dd_
.	.	2c	.
.	.	2.B-Xi	.
.	.	4A	.
=97	=97	=97	=97
0D]	0d]	0Al	0dd]
==	==	==	==
*-	*-	*-	*-
!!!RDF**kern: l=long note in original notation
!!!system-decoration: s1,s2,s3,s4
!!!RDF**kern: i = editorial accidental
!!!ENC: Chris Gage
!!!END: 2014/04/30
!!!EED: Jesse Rodin
!!!EEV: 2021/03/25
!!attribution-level@Jos: 3 (problematic [question mark])
!!!ONB: Translated from MusicXML and edited on 2021/03/25 by Craig Sapp
!!muse2ps: C^@{COA}?\n@{SCT}^i2I150v85,85,85,150c120
